!!!COM: Bach, Johann Sebastian
!!!OPR: Die Kunst der Fuge
!!!XEN: The Art of Fugue
!!!OTL:
!!!OMV: 16
!!!SCT: BWV 1080
!!!SCA: Thematisch-systematisches Verzeichnis der musikalischen Werke Johann Sebastian Bach: Bach-Werke-Verzeichnis (Schmieder)
!!!YOR: Bach Gesellschaft Edition xxv,1
!!!EED: Frances Bennion
!!!ENC: Frances Bennion
!!!CDT: 1685/3//-1750/7/28/
!!!OCY: Deutschland
!!!YEC: Copyright (c) 1994, 2000 Center for Computer Assisted Research in the Humanities
!!!YEM: Rights to all derivative editions reserved.
!!!YEM: Refer to licensing agreement for further details.
!!!YEN: United States of America
**kern	**kern
*k[b-]	*k[b-]
*d:	*d:
*clefG	*clefC
*M9/16	*M9/16
=1	=1
8.a	2r
16d	.
16c#	.
16d	.
16e	.
16d	.
16e	16r
=2	=2
16f	2r
16e	.
16f	.
16g	.
16f	.
16g	.
16a	.
16g	.
16a	16r
=3	=3
8b-	2r
16r	.
8a	.
16r	.
8g	.
16r	16r
=4	=4
[4f	2r
16f]	.
16e	.
8f	.
16g	16r
=5	=5
8a	8.A
16gg	.
8ff	16D
.	16C#
16a	16D
8g	16E
.	16D
16ee	16E
=6	=6
8dd	16F
.	16E
16f	16F
8e	16G
.	16F
16dd	16G
8cc#	16A
.	16G
16e	16A
=7	=7
16e	8B-
16d	.
16c#	16r
16d	8A
16e	.
16f	16r
16g	8G
16a	.
16b-	16r
=8	=8
16b-	[4F
16a	.
16g	.
16a	.
16b	16F]
16cc#	16E
16dd	8F
16ee	.
16ff	16G
=9	=9
16ff	8A
16dd	.
16ee	16g
16ee	8f
16cc#	.
16dd	16A
16dd	8G
16b	.
16cc	16e
=10	=10
16cc	8d
16a	.
16b-	16F
16b-	8E
16g	.
16a	16d
16a	8c#
16f	.
16g	16E
=11	=11
4f	16E
.	16D
.	16C#
.	16D
16g	16E
16a	16F
16b-	16G
16a	16A
16g	16B-
=12	=12
4cc#	16B-
.	16A
.	16G
.	16A
16dd	16B
16ee	16c#
16ff	16d
16ee	16e
16dd	16f
=13	=13
[2gg#	16f
.	16d
.	16e
.	16e
.	16c#
.	16d
.	16d
.	16B
16gg#]	16c
=14	=14
8aa	16c
.	16A
8.r	16B-
.	16B-
.	16G
16cc#	16A
8dd	16A
.	16F
16ee	16G
=15	=15
16a	4F
16b	.
16cc#	.
16dd	.
16ee	16G
16ff	16A
[8.g	16B-
.	16A
.	16G
=16	=16
16g]	4c#
16gg	.
16ff	.
16ee	.
16dd	16d
16cc#	16e
[8.dd	16f
.	16e
.	16d
=17	=17
16dd]	[2g#
16b	.
16cc#	.
16dd	.
16ee	.
16ff	.
16ee	.
16ff	.
16dd	16g#]
=18	=18
16cc#	8a
16dd	.
16ee	8.r
4a	.
.	16c#
.	8d
16b-	.
16g	16e
=19	=19
16f	16A
16g	16B
16e	16c#
16f	16d
16a	16e
16dd	16f
16cc	[8.G
16b-	.
16a	.
=20	=20
16b-	16G]
16dd	16g
16gg	16f
16cc#	16e
16ee	16d
16a	16c#
16b-	[8.d
16a	.
16g	.
=21	=21
16f	16d]
16g	16B
16e	16c#
8f	16d
.	16e
16dd	16f
8g	16e
.	16f
16f	16d
=22	=22
16e	16c#
16a	16d
16g	16e
16f	4A
16e	.
16d	.
8.c#	.
.	16B-
.	16G
=23	=23
8d	16F
.	16G
4..r	16E
.	16F
.	16A
.	16d
.	16c
.	16B-
.	16A
=24	=24
2r	16B-
.	16d
.	16g
.	16c#
.	16e
.	16A
.	16B-
.	16A
16r	16G
=25	=25
8.dd	16F
.	16G
.	16E
16a	8F
16g#	.
16a	16d
16b	8G
16a	.
16b	16F
=26	=26
16cc	16E
16b	16A
16cc#	16G
16dd	16F
16cc#	16E
16dd	16D
16ee	8.C#
16dd	.
16ee	.
=27	=27
8ff	8D
16r	4..r
8ee	.
16r	.
8dd	.
16r	.
=28	=28
[4cc#	2r
16cc#]	.
16a	.
8b	.
16cc#	16r
=29	=29
16dd	8.d
16cc	.
16b	.
8cc	16A
.	16G#
16aa	16A
8gg#	16B
.	16A
16dd	16B
=30	=30
8ee	16c
.	16B
16gg	16c#
16ff	16d
16ee	16c#
16dd	16d
8cc#	16e
.	16d
16bb-	16e
=31	=31
16aa	8f
16ff	.
16dd	16r
16dd	8e
16gg	.
16cc	16r
16cc	8d
16ff	.
16b-	16r
=32	=32
16b-	[4c#
16a	.
16g	.
16a	.
16cc#	16c#]
16ee	16A
16gg	8B
16ff	.
16ee	16c#
=33	=33
16ff	16d
16ee	16c
16dd	16B
16ee	8c
16dd	.
16cc	16a
16dd	8g#
16cc	.
16b	16d
=34	=34
16cc	8e
16dd	.
16ee	16g
16dd	16f
16ee	16e
16ff	16d
16ee	8c#
16ff	.
16gg	16b-
=35	=35
16ff	16a
16dd	16f
16aa	16d
16b-	16d
16ee	16g
16gg	16c
16a	16c
16dd	16f
16ff	16B-
=36	=36
16g	16B-
16cc#	16A
16ee	16G
16f	16A
16a	16c#
16g	16e
16b-	16g
16a	16f
16cc#	16e
=37	=37
16dd	16f
16ee	16e
16ff	16d
4.g#	16e
.	16d
.	16c
.	16d
.	16c
.	16B
=38	=38
8a	16c
.	16d
8.r	16e
.	16d
.	16e
16b	16f
8cc	16e
.	16f
16a	16g
=39	=39
8dd	16f
.	16d
16ff	16a
16ff	16B-
16ee	16e
16dd	16g
16cc	16A
16dd	16d
16b	16f
=40	=40
8.ee	16G
.	16c#
.	16e
8.a	16F
.	16A
.	16G
8.r	16B-
.	16A
.	16c#
=41	=41
8.a	16d
.	16e
.	16f
16ee	4.G#
16ff	.
16ee	.
16dd	.
16ee	.
16dd	.
=42	=42
16cc	8A
16dd	.
16cc	8.r
16b	.
16cc	.
16b	16B
16a	8c
16b	.
16a	16A
=43	=43
8g#	8d
16r	16f
8a	16f
.	16e
16r	16d
8b	16c
.	16d
16r	16B
=44	=44
[4cc	8.e
.	8.A
16cc]	.
16dd	.
8cc	8.r
16b	.
=45	=45
16a	8.A
16e	.
16a	.
16cc	16e
16a	16f
16cc	16e
8ee	16d
.	16e
16g#	16d
=46	=46
8a	16c
.	16d
16ff	16c
8g	16B
.	16c
16ee	16B
8f	16A
.	16B
16dd	16A
=47	=47
16e	8G#
16b	.
16dd	16r
16cc	8A
16b	.
16a	16r
16g#	8B
16dd	.
16ff	16r
=48	=48
16ee	[4c
16dd	.
16cc	.
16b	.
16a	16c]
16g#	16d
16a	8c
16e	.
16b	16B
=49	=49
16cc	16A
16b	16E
16a	16A
4ee	16c
.	16A
.	16c
.	8e
16b	.
16dd	16G#
=50	=50
16dd	8A
16cc	.
16aa	16f
16cc	8G
16b	.
16gg	16e
16b	8F
16a	.
16ff	16d
=51	=51
16a	16E
16g#	16B
16b	16d
8e	16c
.	16B
4r	16A
.	16G#
.	16d
.	16f
=52	=52
8.r	16e
.	16d
.	16c
4dd	16B
.	16A
.	16G#
.	16A
16cc	16E
16dd	16B
=53	=53
16ee	16c
16dd	16B
16cc	16A
16b	4e
16cc	.
16dd	.
16ee	.
16ff#	16B
16gg#	16d
=54	=54
16aa	16d
16ee	16c
16cc	16a
16dd	16c
16gg	16B
16b	16g
16cc	16B
16ff	16A
16a	16f
=55	=55
16b	16A
16ee	16G#
16dd	16B
16cc	8E
16b	.
16a	4r
16b	.
16a	.
16g#	.
=56	=56
16a	8.r
16g#	.
16f#	.
16g#	4d
16e	.
16g#	.
16b	.
16ee	16c
16dd	16d
=57	=57
16cc	16e
16b	16d
16a	16c
4dd	16B
.	16c
.	16d
.	16e
16cc	16f#
16b	16g#
=58	=58
8cc	16a
.	16e
16r	16c
8ff	16d
.	16g
16r	16B
8ee	16c
.	16f
16r	16A
=59	=59
8dd	16B
.	16e
16g#	16d
8a	16c
.	16B
16cc	16A
8.f	16B
.	16A
.	16G#
=60	=60
8e	16A
.	16G#
4..r	16F#
.	16G#
.	16E
.	16G#
.	16B
.	16e
.	16d
=61	=61
16r	16c
16d	16B
16e	16A
16f	4d
16g	.
16f	.
[8.e	.
.	16c
.	16B
=62	=62
16e]	8c
16f	.
16g	16r
16a	8f
16b-	.
16a	16r
16g	8e
16a	.
16g	16r
=63	=63
16f	8d
16g	.
16f	16G#
16e	8A
16f	.
16e	16c
16d	8.F
16e	.
16d	.
=64	=64
8c#	8E
16r	4..r
8d	.
16r	.
8e	.
16r	.
=65	=65
[4f	16r
.	16D
.	16E
.	16F
16f]	16G
16a	16F
8g	[8.E
16f	.
=66	=66
16g	16E]
16f	16F
16e	16G
4.cc#	16A
.	16B-
.	16A
.	16G
.	16A
.	16G
=67	=67
16dd	16F
16b-	16G
16gg	16F
16cc	16E
16a	16F
16ff	16E
16b-	16D
16g	16E
16ee	16D
=68	=68
16a	8C#
16g	.
16ee	16r
16a	8D
16f	.
16dd	16r
16g	8E
16e	.
16cc#	16r
=69	=69
16dd	[4F
16a	.
16f	.
16d	.
16e	16F]
16f	16A
16e	8G
16f	.
16d	16F
=70	=70
4e	16G
.	16F
.	16E
.	4.c#
16f	.
16g	.
16f	.
16g	.
16e	.
=71	=71
8f	16d
.	16B-
16r	16g
8e	16c
.	16A
16r	16f
8d	16B-
.	16G
16r	16e
=72	=72
8c#	16A
.	16G
16r	16e
8d	16A
.	16F
16r	16d
8e	16G
.	16E
16r	16c#
=73	=73
16f	16d
16e	16A
16d	16F
16b-	16D
16a	16E
16g	16F
8cc#	16E
.	16F
16r	16D
=74	=74
16r	4E
16g	.
16d	.
16c#	.
16d	16F
16e	16G
16A	16F
16B	16G
16c#	16E
=75	=75
16d	8F
16G	.
16B-	16r
16c	8E
16F	.
16A	16r
16B-	8D
16E	.
16G	16r
=76	=76
16A	8C#
16a	.
16g	16r
16f	8D
16dd	.
16cc	16r
16b-	8E
16a	.
16b-	16r
=77	=77
8.a	16F
.	16E
.	16D
16d	16B-
16c#	16A
16d	16G
16e	8c#
16d	.
16e	16r
=78	=78
16f	16r
16e	16G
16f	16D
16g	16C#
16f	16D
16g	16E
16a	16AA
16g	16BB
16a	16C#
=79	=79
8b-	16D
.	16GG
16r	16BB-
8a	16C
.	16FF
16r	16AA
8g	16BB-
.	16EE
16r	16GG
=80	=80
[4f	16AA
.	16A
.	16G
.	16F
16f]	16d
16e	16c
8f	16B-
.	16A
16g	16B-
=81	=81
8a	8.A
16gg	.
8ff	16D
.	16C#
16a	16D
8g	16E
.	16D
16ee	16E
=82	=82
8dd	16F
.	16E
16f	16F
8e	16G
.	16F
16dd	16G
8cc#	16A
.	16G
16e	16A
=83	=83
16e	8B-
16d	.
16c#	16r
16d	8A
16e	.
16f	16r
16g	8G
16a	.
16b-	16r
=84	=84
16b-	[4F
16a	.
16g	.
16a	.
16b	16F]
16cc#	16E
16dd	8F
16ee	.
16ff	16G
=85	=85
16ff	8A
16dd	.
16ee	16g
16ee	8f
16cc#	.
16dd	16A
16dd	8G
16b	.
16cc	16e
=86	=86
16cc	8d
16a	.
16b-	16F
16b-	8E
16g	.
16a	16d
16a	8c#
16f	.
16g	16E
=87	=87
4f	16E
.	16D
.	16C#
.	16D
16g	16E
16a	16F
16b-	16G
16a	16A
16g	16B-
=88	=88
4cc#	16B-
.	16A
.	16G
.	16A
16dd	16B
16ee	16c#
16ff	16d
16ee	16e
16dd	16f
=89	=89
[2gg#	16f
.	16d
.	16e
.	16e
.	16c#
.	16d
.	16d
.	16B
16gg#]	16c
=90	=90
8aa	16c
.	16A
8.r	16B-
.	16B-
.	16G
16cc#	16A
8dd	16A
.	16F
16ee	16G
=91	=91
16a	4F
16b	.
16cc#	.
16dd	.
16ee	16G
16ff	16A
[8.g	16B-
.	16A
.	16G
=92	=92
16g]	4c#
16gg	.
16ff	.
16ee	.
16dd	16d
16cc#	16e
[8.dd	16f
.	16e
.	16d
=93	=93
16dd]	[2g#
16b	.
16cc#	.
16dd	.
16ee	.
16ff	.
16ee	.
16ff	.
16dd	16g#]
=94	=94
16cc#	8a
16dd	.
16ee	8.r
4a	.
.	16c#
.	8d
16b-	.
16g	16e
=95	=95
16f	16A
16g	16B
16e	16c#
16f	16d
16a	16e
16dd	16f
16cc	[8.G
16b-	.
16a	.
=96	=96
16b-	16G]
16dd	16g
16gg	16f
16cc#	16e
16ee	16d
16a	16c#
16b-	[8.d
16a	.
16g	.
=97	=97
16f	16d]
16g	16B
16e	16c#
8f	16d
.	16e
16dd	16f
8g	16e
.	16f
16f	16d
=98	=98
16e	16c#
16a	16d
16g	16e
16f	4A
16e	.
16d	.
8.c#	.
.	16B-
.	16G
=99	=99
8d	16F
.	16G
8.r	16E
.	16F
.	16A
16b-	16d
8a	16c
.	16B-
16ff	16A
=100	=100
16g	16B-
16a	16d
16b-	16g
16a	16c#
16cc#	16e
16ee	16A
16gg	16B-
16ff	16A
16ee	16G
=101	=101
8aa	16F
.	16G
16cc#	16E
16dd	8F
16ee	.
16ff	16d
16b-	8G
16ee-	.
16dd	16F
=102	=102
16cc#	16E
16dd	16A
16ee	16G
8a	16F
.	16E
16r	16D
8AA	8.C#
16r	.
=103	=103
4.DD	4.D
8.r	8.r
*-	*-
!!!RWG1: This file contains only pitch and duration data.
!!!RWG2: Transposing instruments are not transposed.
!!!RWG3: Spines may have incompatible meters.
!!!RWG4: Durations of rests and tied notes may be interpreted.
!!!RWG: Key is interpreted using the Humdrum key tool.
!!!AFT: stage1
!!!END: 1997/04/15/
!!format changes:
!!content changes:
!!public access: complete
!!!KEY: 1507730039
!!!EMD: Converted from MuseData to Humdrum Dec 19, 2000, by Andreas Kornstaedt using muse2kern.
